docs/images/education/dm.svg

<?xml version="1.0" encoding="UTF-8"?>
<svg width="230px" height="70px" viewBox="0 0 230 70" version="1.1" xmlns="http://www.w3.org/2000/svg" xmlns:xlink="http://www.w3.org/1999/xlink">
    <title>dm</title>
    <g id="Page-1" stroke="none" stroke-width="1" fill="none" fill-rule="evenodd">
        <g id="dm">
            <g id="DevMountain-(150-x-100)" transform="translate(5.000000, 14.000000)">
                <g id="DevMountain" transform="translate(134.975845, 22.850242) scale(-1, 1) rotate(-180.000000) translate(-134.975845, -22.850242) translate(49.951691, 16.296296)" fill="#000000" fill-rule="nonzero">
                    <path d="M71.0732327,13.0294047 C67.7856688,12.3658111 65.9670165,10.0687564 65.9670165,6.57212873 C65.9810061,2.4629531 68.4152024,0 72.4721961,0 C74.0250454,0 74.878413,0.165898395 75.9416252,0.676354995 C77.3685678,1.37823282 78.4317799,2.67989715 78.9214171,4.36440393 C79.2151994,5.3597943 79.2431787,7.5675191 78.9773757,8.56290947 C78.4177903,10.6685429 76.864941,12.2892426 74.8644234,12.8507449 C74.0110558,13.0804504 71.8566522,13.1953031 71.0732327,13.0294047 Z M74.5566515,11.3066137 C74.8364441,11.1789995 75.3680502,10.7833957 75.7457703,10.4133146 C77.7183086,8.43529532 77.5224538,4.03260714 75.3820398,2.30981612 C74.1369625,1.31442575 72.094476,1.12300452 70.4996577,1.86316659 C69.002767,2.56504442 68.2193475,3.91775441 68.0934408,6.0361493 C67.9115755,9.29031012 69.2965493,11.3066137 71.9126107,11.6128877 C72.7939576,11.714979 73.8991387,11.5873648 74.5566515,11.3066137 Z" id="Shape"></path>
                    <path d="M0.665214704,13.013139 C0.444625372,12.9349045 0.237822873,12.7132402 0.155101874,12.4785367 C-0.0517006246,11.9308953 -0.0517006246,1.22580947 0.155101874,0.665128973 C0.389478039,0.0131749049 0.789296203,-0.0520205019 3.69831802,0.0262139863 C6.53840566,0.104448474 7.37940249,0.260917451 8.73051215,0.938949682 C10.1091955,1.63002099 11.2121421,3.05128086 11.5843866,4.61597063 C11.7774023,5.45047183 11.7774023,7.75838924 11.5705998,8.54073412 C11.0053396,10.770417 9.26819864,12.3481459 6.82792916,12.8957873 C5.8904245,13.0913735 1.14775387,13.1956862 0.665214704,13.013139 Z M7.06230532,11.2137458 C7.99980998,10.8747297 8.84080681,10.131502 9.22683814,9.31003992 C9.65422997,8.39730422 9.8334588,6.78045813 9.66801681,5.47655 C9.25441181,2.41236588 7.68271282,1.43443477 3.14684469,1.42139569 L2.07147169,1.42139569 L2.07147169,6.51967651 L2.07147169,11.6179573 L4.18085718,11.565801 C5.91799817,11.5136447 6.41432416,11.4614883 7.06230532,11.2137458 Z" id="Shape"></path>
                    <path d="M31.4744588,13.0747454 C31.0881422,12.9446166 30.7846077,12.6062817 30.7846077,12.3199983 C30.7846077,11.8124959 35.158264,0.803597394 35.4893926,0.465262453 C36.0964616,-0.146343017 37.1450353,-0.159355899 37.7796984,0.45224957 C38.1108269,0.764558747 42.5120773,11.8124959 42.5120773,12.3330111 C42.5120773,12.9316037 41.3945184,13.3350031 40.9254196,12.8925651 C40.8288405,12.788462 39.8906429,10.4851819 38.8558662,7.76548944 C37.8072924,5.04579704 36.8966889,2.65142669 36.8277038,2.44322057 C36.7173276,2.16995004 36.6483425,2.11789851 36.5655604,2.26104022 C36.5103723,2.35213039 35.5859717,4.74650074 34.5098039,7.57029621 C33.4336361,10.3940917 32.4816415,12.7754491 32.3988594,12.8535264 C32.178107,13.0617326 31.7366023,13.1658356 31.4744588,13.0747454 Z" id="Shape"></path>
                    <path d="M84.2143751,13.049975 C83.5298955,12.8178604 83.5298955,12.8178604 83.5745355,7.93055986 L83.6191755,3.31405957 L84.0655752,2.56613495 C85.1369344,0.722113884 87.4879728,-0.206344274 90.4193309,0.0386655177 C92.3686095,0.219199048 94.1244484,1.25081922 94.8833278,2.66929696 C95.2106876,3.30116432 95.2255676,3.43011684 95.2702076,7.82739784 C95.2999676,10.3032863 95.2850876,12.4567934 95.2404476,12.6115364 C95.0618877,13.2176133 93.7375686,13.256299 93.3804489,12.6760127 C93.2762889,12.5083744 93.216769,10.9480489 93.216769,8.24004591 C93.216769,4.70674681 93.172129,3.97171744 92.9786891,3.4430121 C92.1156497,1.28950498 88.3510123,0.747904388 86.5505335,2.52744919 C85.7023741,3.36564058 85.6279741,3.86855542 85.6279741,8.47216045 C85.6279741,12.2633646 85.5982141,12.6373269 85.3750143,12.8178604 C85.0178945,13.0886607 84.5714948,13.1789275 84.2143751,13.049975 Z" id="Shape"></path>
                    <path d="M138.906366,12.6930999 C138.546488,12.3560826 137.913102,11.0857865 135.984153,6.75640996 C134.63101,3.72325394 133.479399,1.09192629 133.421819,0.897493213 C133.292262,0.430853827 133.752907,0.0160632607 134.429478,0.0160632607 C135.048469,0.0160632607 135.16363,0.158647518 135.940968,1.99928065 L136.545564,3.38623661 L140.014792,3.3603122 L143.48402,3.32142558 L144.160592,1.77892317 C144.534865,0.936379829 144.923534,0.197534133 145.0243,0.132723107 C145.628896,-0.217256433 146.59337,0.171609723 146.59337,0.754908956 C146.59337,0.98822865 141.842974,11.746859 141.425515,12.4208936 C141.195193,12.8097598 140.533017,13.1078905 139.885236,13.1078905 C139.496567,13.1078905 139.25185,13.0041929 138.906366,12.6930999 Z M141.540677,7.80634858 C142.260433,6.13422411 142.836239,4.74726815 142.807449,4.72134374 C142.778658,4.69541933 141.483096,4.69541933 139.942816,4.70838154 L137.135764,4.74726815 L138.445722,7.79338637 C139.179874,9.46551084 139.827655,10.9561644 139.885236,11.0987487 L140.000397,11.3579928 L140.115558,11.0987487 C140.173138,10.9561644 140.82092,9.47847305 141.540677,7.80634858 Z" id="Shape"></path>
                    <path d="M152.174389,12.9982536 C151.996383,12.9067405 151.828847,12.6975677 151.797435,12.5276148 C151.755551,12.3576619 151.724138,9.61226905 151.724138,6.42238401 L151.724138,0.630912398 L151.985912,0.317153214 C152.279099,-0.0619724671 152.62464,-0.101192365 152.959711,0.19949352 L153.190072,0.39559301 L153.190072,6.5138971 C153.190072,12.1746357 153.179601,12.6452745 153.012065,12.8283007 C152.718879,13.1420599 152.519931,13.1812798 152.174389,12.9982536 Z" id="Shape"></path>
                    <path d="M17.8939181,12.8326248 C17.6549866,12.570467 17.6417127,12.2427697 17.6018908,6.96028986 C17.5753428,3.89304348 17.6018908,1.17971014 17.6417127,0.943768116 C17.6815346,0.707826087 17.8408222,0.393236715 17.9868359,0.249049919 C18.2257674,0.0131078905 18.4514249,0 22.0088492,0 C24.0795888,0 25.8848488,0.0393236715 26.0043146,0.078647343 C26.3627118,0.222834138 26.5087255,0.773365539 26.269794,1.12727858 L26.0706844,1.44186795 L22.8185615,1.44186795 L19.5664385,1.44186795 L19.5664385,3.73574879 L19.5664385,6.02962963 L22.4734382,6.02962963 C25.6591913,6.02962963 25.805205,6.05584541 25.805205,6.80299517 C25.805205,7.4452818 25.6990132,7.47149758 22.5265341,7.47149758 L19.5664385,7.47149758 L19.5664385,9.56876006 L19.5664385,11.6660225 L22.6194519,11.6660225 C25.4999037,11.6660225 25.6857393,11.6791304 25.9379447,11.9281804 C26.25652,12.2427697 26.283068,12.6228986 25.9910406,12.8981643 C25.818479,13.0816747 25.2609722,13.1078905 21.9690273,13.1078905 C18.2523154,13.1078905 18.1461236,13.0947826 17.8939181,12.8326248 Z" id="Shape"></path>
                    <path d="M101.678592,12.956901 C101.192331,12.6024041 101.149425,12.1034824 101.149425,6.36588301 C101.149425,0.812096898 101.149425,0.6676722 101.449763,0.326304732 C101.778704,-0.0544512899 102.22206,-0.106969362 102.694019,0.195009552 L103.008658,0.391952322 L103.008658,5.31552157 C103.008658,8.02020228 103.051564,10.2259613 103.123073,10.2259613 C103.18028,10.2128318 104.710572,8.23027456 106.512597,5.80131374 C110.631514,0.27378666 110.731626,0.155620998 111.360905,0.050584854 C111.875769,-0.0413217719 112.390634,0.129361962 112.690972,0.496988466 C112.819688,0.654542682 112.862593,2.19069629 112.876895,6.69412096 C112.876895,12.3266842 112.862593,12.6943107 112.619463,12.8912535 C112.27622,13.1801028 111.532526,13.1801028 111.289396,12.8912535 C111.132076,12.7205697 111.074869,11.6570788 111.017662,7.73135288 L110.946153,2.79465411 L107.227687,7.77074143 C104.853589,10.9349553 103.366203,12.8124763 103.123073,12.930642 C102.651113,13.1538438 101.993231,13.1669733 101.678592,12.956901 Z" id="Shape"></path>
                    <path d="M117.419201,12.8585802 C117.178359,12.4518107 117.23857,12.0844061 117.599832,11.8744606 C117.870779,11.7038798 118.382568,11.664515 120.008249,11.664515 L122.085508,11.664515 L122.085508,6.15344506 L122.085508,0.629253487 L122.461823,0.314335202 C122.898349,-0.0793126529 123.4854,-0.105555843 123.891821,0.248727227 C124.17782,0.498037535 124.192873,0.681739867 124.192873,6.08783708 L124.192873,11.664515 L126.345395,11.664515 C128.257076,11.664515 128.543075,11.6907582 128.753812,11.9007037 C129.054864,12.1893788 129.084969,12.7273642 128.829075,12.9504314 C128.693602,13.0685257 127.218446,13.1078905 123.109085,13.1078905 C117.795516,13.1078905 117.569727,13.0947689 117.419201,12.8585802 Z" id="Shape"></path>
                    <path d="M158.850006,12.956901 C158.363745,12.6024041 158.32084,12.1034824 158.32084,6.36588301 C158.32084,0.812096898 158.32084,0.6676722 158.621177,0.326304732 C158.950118,-0.0544512899 159.393474,-0.106969362 159.865433,0.195009552 L160.180073,0.391952322 L160.180073,5.31552157 C160.180073,8.02020228 160.222978,10.2259613 160.294487,10.2259613 C160.351694,10.2128318 161.881986,8.23027456 163.684012,5.80131374 C167.802928,0.27378666 167.90304,0.155620998 168.532319,0.050584854 C169.047184,-0.0413217719 169.562048,0.129361962 169.862386,0.496988466 C169.991102,0.654542682 170.034007,2.19069629 170.048309,6.69412096 C170.048309,12.3266842 170.034007,12.6943107 169.790877,12.8912535 C169.447634,13.1801028 168.703941,13.1801028 168.46081,12.8912535 C168.303491,12.7205697 168.246283,11.6570788 168.189076,7.73135288 L168.117567,2.79465411 L164.399101,7.77074143 C162.025004,10.9349553 160.537617,12.8124763 160.294487,12.930642 C159.822528,13.1538438 159.164645,13.1669733 158.850006,12.956901 Z" id="Shape"></path>
                    <path d="M47.900735,13.0797943 C47.7378545,13.0529103 47.4528135,12.8647217 47.2627862,12.6765331 L46.9098784,12.32704 L46.9098784,6.30500486 C46.9098784,0.484600402 46.9234518,0.26952772 47.1677726,0.135107294 C47.5885473,-0.0799653885 48.1043357,-0.026197218 48.40295,0.26952772 C48.6608442,0.52492653 48.6744175,0.713115127 48.6744175,5.6866709 L48.6744175,10.8215312 L50.9140249,5.86141745 C52.135629,3.1326828 53.2757927,0.753441254 53.4386733,0.592136743 C53.8865947,0.121665251 54.5652636,0.161991379 55.0267585,0.659346956 C55.2303592,0.874419638 56.3705229,3.2267771 57.5649802,5.91518562 L59.7367207,10.767763 L59.7774408,5.63290273 C59.818161,-0.0799653885 59.8045876,0.000686867233 60.7004306,0.000686867233 C61.5962735,0.000686867233 61.5692154,-0.200943772 61.5692154,6.30500486 C61.5692154,12.031315 61.5555534,12.2060616 61.2976592,12.5421126 C60.6732838,13.3351932 59.4923999,13.2410989 58.8273044,12.353924 C58.6372771,12.0985252 57.5649802,9.84026207 56.4248164,7.3266001 C55.2846527,4.81293813 54.3209428,2.71597948 54.2666493,2.66221131 C54.2123558,2.60844314 53.1672057,4.772612 51.9456017,7.47446257 C49.7467144,12.340482 49.3395131,13.0394682 48.7422844,13.0394682 C48.6472708,13.0394682 48.4843903,13.0663523 48.3758032,13.0932364 C48.2807896,13.1201205 48.0636155,13.1066784 47.900735,13.0797943 Z" id="Shape"></path>
                </g>
                <g id="Logo" transform="translate(-0.000000, 0.000000)" stroke="#25AAE1" stroke-width="2">
                    <circle id="Oval" cx="21.2560386" cy="21.2560386" r="21.2560386"></circle>
                    <polyline id="Path-2" stroke-linecap="round" stroke-linejoin="round" points="22.5132008 17.7577423 17.782246 8.96581725 6.54806878 29.1137212 20.36258 29.1137212 28.2412273 15.7121338 36.064748 29.1137212 25.2965786 29.1137212"></polyline>
                </g>
            </g>
            <rect id="Rectangle-Copy-5" x="0" y="0" width="230" height="70"></rect>
        </g>
    </g>
</svg>

<svg height="70" viewBox="0 0 230 70" width="230" xmlns="http://www.w3.org/2000/svg"><g fill="none" fill-rule="evenodd"><g transform="translate(5 14)"><g fill="#000" fill-rule="nonzero" transform="matrix(1 0 0 -1 49.951691 29.404188)"><path d="m71.0732327 13.0294047c-3.2875639-.6635936-5.1062162-2.9606483-5.1062162-6.45727597.0139896-4.10917563 2.4481859-6.57212873 6.5051796-6.57212873 1.5528493 0 2.4062169.1658984 3.4694291.676355 1.4269426.70187782 2.4901547 2.00354215 2.9797919 3.68804893.2937823.99539037.3217616 3.20311517.0559586 4.19850554-.5595854 2.10563343-2.1124347 3.72633313-4.1129523 4.28783543-.8533676.2297055-3.0077712.3445582-3.7911907.1786598zm3.4834188-1.722791c.2797926-.1276142.8113987-.523218 1.1891188-.8932991 1.9725383-1.97801928 1.7766835-6.38070746-.3637305-8.10349848-1.2450773-.99539037-3.2875638-1.1868116-4.8823821-.44664953-1.4968907.70187783-2.2803102 2.05458782-2.4062169 4.17298271-.1818653 3.25416082 1.2031085 5.2704644 3.8191699 5.5767384.8813469.1020913 1.986528-.0255229 2.6440408-.306274z"/><path d="m.6652147 13.013139c-.22058933-.0782345-.42739183-.2998988-.51011283-.5346023-.20680249-.5476414-.20680249-11.25272723 0-11.81340773.23437617-.65195407.63419433-.71714947 3.54321615-.63891498 2.84008764.07823448 3.68108447.23470346 5.03219413.91273569 1.37868335.69107131 2.48162995 2.11233118 2.85387445 3.67702095.1930157.8345012.1930157 3.14241861-.0137868 3.92476349-.5652602 2.22968288-2.30240116 3.80741178-4.74267064 4.35505318-.93750466.1955862-5.68017529.2998989-6.16271446.1173517zm6.39709062-1.7993932c.93750466-.3390161 1.77850149-1.0822438 2.16453282-1.90370588.42739183-.9127357.60662066-2.52958179.44117867-3.83348992-.413605-3.06418412-1.98530399-4.04211523-6.52117212-4.05515431h-1.075373v5.09828082 5.09828079l2.10938549-.0521563c1.73714099-.0521563 2.23346698-.1043127 2.88144814-.3520552z"/><path d="m31.4744588 13.0747454c-.3863166-.1301288-.6898511-.4684637-.6898511-.7547471 0-.5075024 4.3736563-11.51640091 4.7047849-11.85473585.607069-.61160547 1.6556427-.62461835 2.2903058-.01301288.3311285.31230918 4.7323789 11.36024633 4.7323789 11.88076153 0 .5985926-1.1175589 1.001992-1.5866577.559554-.0965791-.1041031-1.0347767-2.4073832-2.0695534-5.12707566-1.0485738-2.7196924-1.9591773-5.11406275-2.0281624-5.32226887-.1103762-.27327053-.1793613-.32532206-.2621434-.18218035-.0551881.09109017-.9795887 2.48546052-2.0557565 5.30925599-1.0761678 2.82379549-2.0281624 5.20515289-2.1109445 5.28323019-.2207524.2082062-.6622571.3123092-.9244006.221219z"/><path d="m84.2143751 13.049975c-.6844796-.2321146-.6844796-.2321146-.6398396-5.11941514l.04464-4.61650029.4463997-.74792462c1.0713592-1.84402107 3.4223976-2.77247922 6.3537557-2.52746943 1.9492786.18053353 3.7051175 1.2121537 4.4639969 2.63063144.3273598.63186736.3422398.76081988.3868798 5.15810088.02976 2.47588846.01488 4.62939556-.02976 4.78413856-.1785599.6060769-1.502879.6447626-1.8599987.0644763-.10416-.1676383-.1636799-1.7279638-.1636799-4.43596679 0-3.5332991-.04464-4.26832847-.2380799-4.79703381-.8630394-2.15350712-4.6276768-2.69510771-6.4281556-.91556291-.8481594.83819139-.9225594 1.34110623-.9225594 5.94471126 0 3.79120415-.02976 4.16516645-.2529598 4.34569995-.3571198.2708003-.8035195.3610671-1.1606392.2321146z"/><path d="m138.906366 12.6930999c-.359878-.3370173-.993264-1.6073134-2.922213-5.93668994-1.353143-3.03315602-2.504754-5.66448367-2.562334-5.85891675-.129557-.46663938.331088-.88142995 1.007659-.88142995.618991 0 .734152.14258426 1.51149 1.98321739l.604596 1.38695596 3.469228-.02592441 3.469228-.03888662.676572-1.54250241c.374273-.84254334.762942-1.58138904.863708-1.64620006.604596-.34997954 1.56907.03888661 1.56907.62218585 0 .23331969-4.750396 10.99195004-5.167855 11.66598464-.230322.3888662-.892498.6869969-1.540279.6869969-.388669 0-.633386-.1036976-.97887-.4147906zm2.634311-4.88675132c.719756-1.67212447 1.295562-3.05908043 1.266772-3.08500484-.028791-.02592441-1.324353-.02592441-2.864633-.0129622l-2.807052.03888661 1.309958 3.04611822c.734152 1.67212447 1.381933 3.16277803 1.439514 3.30536233l.115161.2592441.115161-.2592441c.05758-.1425843.705362-1.62027565 1.425119-3.29240012z"/><path d="m152.174389 12.9982536c-.178006-.0915131-.345542-.3006859-.376954-.4706388-.041884-.1699529-.073297-2.91534575-.073297-6.10523079v-5.79147161l.261774-.31375919c.293187-.37912568.638728-.41834558.973799-.11765969l.230361.19609949v6.11830409c0 5.6607386-.010471 6.1313774-.178007 6.3144036-.293186.3137592-.492134.3529791-.837676.1699529z"/><path d="m17.8939181 12.8326248c-.2389315-.2621578-.2522054-.5898551-.2920273-5.87233494-.026548-3.06724638 0-5.78057972.0398219-6.01652174.0398219-.23594203.1991095-.5505314.3451232-.6947182.2389315-.23594203.464589-.24904992 4.0220133-.24904992 2.0707396 0 3.8759996.03932367 3.9954654.07864734.3583972.1441868.5044109.6947182.2654794 1.04863124l-.1991096.31458937h-3.2521229-3.252123v2.29388084 2.29388084h2.9069997c3.1857531 0 3.3317668.02621578 3.3317668.77336554 0 .64228663-.1061918.66850241-3.2786709.66850241h-2.9600956v2.09726248 2.09726244h3.0530134c2.8804518 0 3.0662874.0131079 3.3184928.2621579.3185753.3145893.3451233.6947182.0530959.9699839-.1725616.1835104-.7300684.2097262-4.0220133.2097262-3.7167119 0-3.8229037-.0131079-4.0751092-.2752657z"/><path d="m101.678592 12.956901c-.486261-.3544969-.529167-.8534186-.529167-6.59101799 0-5.55378611 0-5.69821081.300338-6.03957828.328941-.38075602.772297-.43327409 1.244256-.13129518l.314639.19694277v4.92356925c0 2.70468071.042906 4.91043973.114415 4.91043973.057207-.0131295 1.587499-1.99568674 3.389524-4.42464756 4.118917-5.52752708 4.219029-5.64569274 4.848308-5.75072889.514864-.09190662 1.029729.07877711 1.330067.44640362.128716.15755421.171621 1.69370782.185923 6.19713249 0 5.63256324-.014302 6.00018974-.257432 6.19713254-.343243.2888493-1.086937.2888493-1.330067 0-.15732-.1706838-.214527-1.2341747-.271734-5.15990062l-.071509-4.93669877-3.718466 4.97608732c-2.374098 3.16421387-3.861484 5.04173487-4.104614 5.15990057-.47196.2232018-1.129842.2363313-1.444481.026259z"/><path d="m117.419201 12.8585802c-.240842-.4067695-.180631-.7741741.180631-.9841196.270947-.1705808.782736-.2099456 2.408417-.2099456h2.077259v-5.51106994-5.52419157l.376315-.31491829c.436526-.39364785 1.023577-.41989104 1.429998-.06560797.285999.24931031.301052.43301264.301052 5.83910985v5.57667792h2.152522c1.911681 0 2.19768.0262432 2.408417.2361887.301052.2886751.331157.8266605.075263 1.0497277-.135473.1180943-1.610629.1574591-5.71999.1574591-5.313569 0-5.539358-.0131216-5.689884-.2493103z"/><path d="m158.850006 12.956901c-.486261-.3544969-.529166-.8534186-.529166-6.59101799 0-5.55378611 0-5.69821081.300337-6.03957828.328941-.38075602.772297-.43327409 1.244256-.13129518l.31464.19694277v4.92356925c0 2.70468071.042905 4.91043973.114414 4.91043973.057207-.0131295 1.587499-1.99568674 3.389525-4.42464756 4.118916-5.52752708 4.219028-5.64569274 4.848307-5.75072889.514865-.09190662 1.029729.07877711 1.330067.44640362.128716.15755421.171621 1.69370782.185923 6.19713249 0 5.63256324-.014302 6.00018974-.257432 6.19713254-.343243.2888493-1.086936.2888493-1.330067 0-.157319-.1706838-.214527-1.2341747-.271734-5.15990062l-.071509-4.93669877-3.718466 4.97608732c-2.374097 3.16421387-3.861484 5.04173487-4.104614 5.15990057-.471959.2232018-1.129842.2363313-1.444481.026259z"/><path d="m47.900735 13.0797943c-.1628805-.026884-.4479215-.2150726-.6379488-.4032612l-.3529078-.3494931v-6.02203514c0-5.82040446.0135734-6.03547714.2578942-6.16989757.4207747-.21507268.9365631-.16130451 1.2351774.13442043.2578942.25539881.2714675.44358741.2714675 5.41714318v5.1348603l2.2396074-4.96011375c1.2216041-2.72873465 2.3617678-5.1079762 2.5246484-5.26928071.4479214-.47047149 1.1265903-.43014536 1.5880852.06721022.2036007.21507268 1.3437644 2.56743014 2.5382217 5.25583866l2.1717405 4.85257738.0407201-5.13486027c.0407202-5.71286812.0271468-5.63221586.9229898-5.63221586.8958429 0 .8687848-.20163064.8687848 6.30431799 0 5.72631014-.013662 5.90105674-.2715562 6.23710774-.6243754.7930806-1.8052593.6989863-2.4703548-.1881886-.1900273-.2553988-1.2623242-2.51366193-2.402488-5.0273239-1.1401637-2.51366197-2.1038736-4.61062062-2.1581671-4.66438879s-1.0994436 2.11040069-2.3210476 4.81225126c-2.1988873 4.86601943-2.6060886 5.56500563-3.2033173 5.56500563-.0950136 0-.2578941.0268841-.3664812.0537682-.0950136.0268841-.3121877.013442-.4750682-.0134421z"/></g><g stroke="#25aae1" stroke-width="2"><circle cx="21.256039" cy="21.256039" r="21.256039"/><path d="m22.5132008 17.7577423-4.7309548-8.79192505-11.23417722 20.14790395h13.81451122l7.8786473-13.4015874 7.8235207 13.4015874h-10.7681694" stroke-linecap="round" stroke-linejoin="round"/></g></g><path d="m0 0h230v70h-230z"/></g></svg>
